assets/logos/icons/time.svg

<svg height="24" viewBox="0 0 24 24" width="24" xmlns="http://www.w3.org/2000/svg"><path d="m11.9999999 12c-3.69999992 0-6.89999993 2.5-7.69999994 6h-2.30000001c0 1.1.9 2 2 2h15.99999995c1.1000001 0 2.0000002-.9 2-2h-2.2999999c-.8-3.5-4-6-7.7000001-6zm-5.69999993 6c.80000001-2.3 3-4 5.70000003-4 2.7 0 4.8 1.7 5.7 4zm13.40000003-12.00000003 2.2999999-.00000001c.0000002-1.1-.8999999-2-2-2h-15.99999995c-1.1 0-2 .9-2 2l2.30000001.00000001c.90000001 3.50000002 4.00000002 6.00000003 7.69999994 6.00000003 3.7000001 0 6.9000001-2.50000001 7.7000001-6.00000003zm-7.7 4.00000002c-2.60000001 0-4.80000002-1.70000001-5.70000003-4.00000002h11.30000003c-.8 2.30000001-3 4.00000002-5.6 4.00000002z" fill="#492f5c" fill-rule="evenodd"/></svg>

<svg xmlns="http://www.w3.org/2000/svg" xmlns:xlink="http://www.w3.org/1999/xlink" width="24" height="24" viewBox="0 0 24 24">
  <defs>
    <path id="time-a" d="M11.9999999,12 C8.29999998,12 5.09999997,14.5 4.29999996,18 L1.99999995,18 C1.99999995,19.1 2.89999995,20 3.99999995,20 L19.9999999,20 C21.1,20 22.0000001,19.1 21.9999999,18 L19.7,18 C18.9,14.5 15.7,12 11.9999999,12 Z M6.29999997,18 C7.09999998,15.7 9.29999997,14 12,14 C14.7,14 16.8,15.7 17.7,18 L6.29999997,18 Z M19.7,5.99999997 L21.9999999,5.99999996 C22.0000001,4.89999996 21.1,3.99999996 19.9999999,3.99999996 L3.99999995,3.99999996 C2.89999995,3.99999996 1.99999995,4.89999996 1.99999995,5.99999996 L4.29999996,5.99999997 C5.19999997,9.49999999 8.29999998,12 11.9999999,12 C15.7,12 18.9,9.49999999 19.7,5.99999997 Z M12,9.99999999 C9.39999999,9.99999999 7.19999998,8.29999998 6.29999997,5.99999997 L17.6,5.99999997 C16.8,8.29999998 14.6,9.99999999 12,9.99999999 Z"/>
  </defs>
  <use fill="#492F5C" fill-rule="evenodd" xlink:href="#time-a"/>
</svg>
